X:11722
T:New Drop Hornpipe. BF13.066
M:4/4
Q:180
C:"By Adams"
S:J.Lishman()MS,c1825,Lakes,Browne Coll.
R:Hornpipe
O:England
A:Lakes
Z:vmp.Chris Partington
K:Bb
(F/G/A/)|B2B2Bdce|d2d2dfeg|fbag fedc|Bdfe cAFA|!
B2B2Bdce|d2d2dfeg|fc'ag fedc|d2B2B2::!
FE|DBFB DBFB|EBGB EBGB |ecAc ecAc|dBFB dBFE|!
DBFB DBFB|EBGB EBGB|ecAc ecAc|d2B2B2:|]
